images/icons/mask.svg

<?xml version="1.0" encoding="UTF-8"?>
<svg width="16px" height="16px" viewBox="0 0 16 16" version="1.1" xmlns="http://www.w3.org/2000/svg" xmlns:xlink="http://www.w3.org/1999/xlink">
    <!-- Generator: sketchtool 53.2 (72643) - https://sketchapp.com -->
    <title>static/images/icons/mask</title>
    <desc>Created with sketchtool.</desc>
    <g id="Main" stroke="none" stroke-width="1" fill="none" fill-rule="evenodd">
        <g id="static/images/icons/mask" fill="#000000">
            <path d="M1,15.8110236 L1,0 L2.37532808,0 L2.37532808,15.8110236 L1,15.8110236 Z M5.7664042,7.49606299 C5.7664042,5.67979003 7.57217848,4.31496063 9.8503937,4.31496063 C12.1286089,4.31496063 13.7454068,5.4488189 13.9973753,7.24409449 L12.6430446,7.24409449 C12.3910761,6.18372703 11.3412073,5.49081365 9.83989501,5.49081365 C8.35958005,5.49081365 7.15223097,6.30971129 7.15223097,7.44356955 C7.15223097,8.37795276 7.88713911,8.91338583 9.39895013,9.27034121 L10.9527559,9.63779528 C13.1364829,10.1627297 14.1968504,11.0446194 14.1968504,12.6824147 C14.1968504,14.6351706 12.2965879,16 9.82939633,16 C7.36220472,16 5.65091864,14.8346457 5.41994751,12.976378 L6.84776903,12.976378 C7.15223097,14.1102362 8.2335958,14.824147 9.87139108,14.824147 C11.5301837,14.824147 12.7795276,13.9737533 12.7795276,12.7874016 C12.7795276,11.8005249 12.0761155,11.2230971 10.5643045,10.8661417 L8.85301837,10.4566929 C6.75328084,9.95275591 5.7664042,9.09186352 5.7664042,7.49606299 Z" id="ls"></path>
        </g>
    </g>
</svg>

<svg xmlns="http://www.w3.org/2000/svg" width="16" height="16" viewBox="0 0 16 16"><title>static/images/icons/mask</title><path fill="#000" fill-rule="evenodd" d="M1 15.811V0h1.375v15.811H1Zm4.766-8.315c0-1.816 1.806-3.181 4.084-3.181 2.279 0 3.895 1.134 4.147 2.93h-1.354C12.391 6.183 11.341 5.49 9.84 5.49c-1.48 0-2.688.819-2.688 1.953 0 .934.735 1.47 2.247 1.826l1.554.368c2.183.525 3.244 1.407 3.244 3.044 0 1.953-1.9 3.318-4.368 3.318-2.467 0-4.178-1.165-4.41-3.024h1.429c.304 1.134 1.386 1.848 3.023 1.848 1.66 0 2.909-.85 2.909-2.037 0-.986-.704-1.564-2.216-1.92l-1.711-.41c-2.1-.504-3.087-1.365-3.087-2.96Z"/></svg>
